svgs/light/draw-circle.svg

<svg xmlns="http://www.w3.org/2000/svg" viewBox="0 0 512 512"><!-- Font Awesome Pro 5.15.3 by @fontawesome - https://fontawesome.com License - https://fontawesome.com/license (Commercial License) --><path d="M512 256c0-33.51-25.84-60.69-58.63-63.46-20.48-63.5-70.41-113.43-133.91-133.91C316.69 25.84 289.51 0 256 0s-60.69 25.84-63.46 58.63c-63.5 20.48-113.43 70.41-133.91 133.91C25.84 195.31 0 222.49 0 256c0 33.51 25.84 60.69 58.63 63.46 20.48 63.5 70.41 113.43 133.91 133.91C195.31 486.16 222.49 512 256 512s60.69-25.84 63.46-58.63c63.5-20.48 113.43-70.41 133.91-133.91C486.16 316.69 512 289.51 512 256zM256 32c17.64 0 32 14.36 32 32s-14.36 32-32 32-32-14.36-32-32 14.36-32 32-32zM32 256c0-17.64 14.36-32 32-32s32 14.36 32 32-14.36 32-32 32-32-14.36-32-32zm224 224c-17.64 0-32-14.36-32-32s14.36-32 32-32 32 14.36 32 32-14.36 32-32 32zm58.12-58.47C304.04 399.43 281.88 384 256 384s-48.04 15.43-58.12 37.53c-50.16-17.67-89.73-57.24-107.4-107.4C112.57 304.04 128 281.88 128 256c0-25.88-15.43-48.04-37.53-58.12 17.67-50.17 57.24-89.73 107.4-107.4C207.96 112.57 230.12 128 256 128s48.04-15.43 58.12-37.53c50.16 17.67 89.73 57.24 107.4 107.4C399.43 207.96 384 230.12 384 256c0 25.88 15.43 48.04 37.53 58.12-17.68 50.17-57.25 89.74-107.41 107.41zM448 288c-17.64 0-32-14.36-32-32s14.36-32 32-32 32 14.36 32 32-14.36 32-32 32z"/></svg>

<svg xmlns="http://www.w3.org/2000/svg" viewBox="0 0 512 512"><!--! Font Awesome Pro 6.0.0-alpha3 by @fontawesome - https://fontawesome.com License - https://fontawesome.com/license (Commercial License) --><path d="M512 256c0-33.5-25.88-60.75-58.63-63.5C432.9 129 383 79.12 319.5 58.62C316.8 25.88 289.5 0 256 0S195.2 25.88 192.5 58.62C129 79.12 79.12 129 58.62 192.5C25.88 195.2 0 222.5 0 256s25.88 60.75 58.62 63.5c20.5 63.5 70.38 113.4 133.9 133.9C195.2 486.1 222.5 512 256 512s60.75-25.88 63.5-58.63c63.5-20.5 113.4-70.38 133.9-133.9C486.1 316.8 512 289.5 512 256zM256 32c17.62 0 32 14.38 32 32s-14.38 32-32 32C238.4 96 224 81.62 224 64S238.4 32 256 32zM32 256c0-17.62 14.38-32 32-32s32 14.38 32 32S81.62 288 64 288S32 273.6 32 256zM256 480c-17.62 0-32-14.38-32-32s14.38-32 32-32c17.62 0 32 14.38 32 32S273.6 480 256 480zM314.1 421.5C304 399.4 281.9 384 256 384c-25.88 0-48 15.38-58.12 37.5C147.8 403.9 108.1 364.2 90.5 314.1C112.6 304 128 281.9 128 256S112.6 208 90.5 197.9C108.1 147.8 147.8 108.1 197.9 90.5C208 112.6 230.1 128 256 128c25.88 0 48-15.38 58.13-37.5c50.12 17.62 89.75 57.25 107.4 107.4C399.4 208 384 230.1 384 256s15.38 48 37.5 58.13C403.9 364.2 364.2 403.9 314.1 421.5zM448 288c-17.62 0-32-14.38-32-32s14.38-32 32-32s32 14.38 32 32S465.6 288 448 288z"/></svg>
